assets/svg/newspaper-o.svg

<?xml version="1.0" encoding="UTF-8"?>
<svg width="1000px" height="1000px" viewBox="0 0 1000 1000" version="1.1" xmlns="http://www.w3.org/2000/svg" xmlns:xlink="http://www.w3.org/1999/xlink">
    <!-- Generator: sketchtool 52.4 (67378) - http://www.bohemiancoding.com/sketch -->
    <title>newspaper-o</title>
    <desc>Created with sketchtool.</desc>
    <g id="新版图标" stroke="none" stroke-width="1" fill="none" fill-rule="evenodd">
        <g id="newspaper-o" fill="#251714">
            <g id="直角-有赞小报-线-">
                <path d="M777.777778,833.333333 L833.333333,833.333333 L833.333333,666.666667 L777.777778,666.666667 L777.777778,833.333333 Z M833.333333,611.111111 C864.055556,611.111111 888.888889,635.944444 888.888889,666.666667 L888.888889,833.333333 C888.888889,864.055556 864.055556,888.888889 833.333333,888.888889 L722.222222,888.888889 L166.666667,888.888889 C135.944444,888.888889 111.111111,864.055556 111.111111,833.333333 L111.111111,166.666667 C111.111111,135.944444 135.944444,111.111111 166.666667,111.111111 L722.222222,111.111111 C752.944444,111.111111 777.777778,135.944444 777.777778,166.666667 L777.777778,611.111111 L833.333333,611.111111 Z M166.666667,833.333333 L722.222222,833.333333 L722.222222,611.111111 L722.222222,166.666667 L166.666667,166.666667 L166.666667,833.333333 Z M277.777778,611.111111 L388.888889,611.111111 L388.888889,444.444444 L277.777778,444.444444 L277.777778,611.111111 Z M222.222222,666.666667 L222.222222,388.888889 L444.444444,388.888889 L444.444444,666.666667 L222.222222,666.666667 Z M222.222222,333.333333 L222.222222,277.777778 L666.666667,277.777778 L666.666667,333.333333 L222.222222,333.333333 Z M500,444.444444 L500,388.888889 L666.666667,388.888889 L666.666667,444.444444 L500,444.444444 Z M500,555.555556 L500,500 L666.666667,500 L666.666667,555.555556 L500,555.555556 Z M500,666.666667 L500,611.055556 L666.666667,611.055556 L666.666667,666.666667 L500,666.666667 Z" id="Fill-6"></path>
            </g>
        </g>
    </g>
</svg>

<svg width="1000" height="1000" xmlns="http://www.w3.org/2000/svg"><path d="M777.778 833.333h55.555V666.667h-55.555v166.666zm55.555-222.222c30.723 0 55.556 24.833 55.556 55.556v166.666c0 30.723-24.833 55.556-55.556 55.556H166.667c-30.723 0-55.556-24.833-55.556-55.556V166.667c0-30.723 24.833-55.556 55.556-55.556h555.555c30.722 0 55.556 24.833 55.556 55.556V611.11h55.555zM166.667 833.333h555.555V166.667H166.667v666.666zm111.11-222.222H388.89V444.444H277.778v166.667zm-55.555 55.556V388.889h222.222v277.778H222.222zm0-333.334v-55.555h444.445v55.555H222.222zM500 444.444V388.89h166.667v55.555H500zm0 111.112V500h166.667v55.556H500zm0 111.11v-55.61h166.667v55.61H500z" fill="#251714" fill-rule="evenodd"/></svg>
